X:1
T:O Guds Lam uskyldig
T:440 O Guds Lam uskyldig a3
T:In commemoratione exitus medii aevi
T:Arr. Eyolf Østrem
%%score [ 1 2 3 ]
L:1/8
M:4/4
K:G
V:1 treble nm="S." snm="S."
V:2 treble nm="A." snm="A."
V:3 bass nm="B." snm="B."
V:1
 G2 A2 B2 B2 c4 B4 | B2 A2 B2 c2 d2 c2 !breath!B4 B2 |1 A2 G2 B2 B2 A6 z2 :|2 A2 G2 B2 B2 A6 z2 || %4
w: O Guds Lam u- skyl- dig,|du, som bæ- rer ver- dens synd; for-|barm dig o- ver os!|barm dig o- ver os!|
 G2 A2 B2 B2 c4 B4 | B2 A2 B2 c2 d2 c2 !breath!B4 B2 | A2 G2 B2 A6 z2 | G2 A2 B2 c2 B2 A2 G4 | %8
w: O Guds Lam u- skyl- dig,|du, som bæ- rer ver- dens synd, for-|len os din fred!|A- * * * * * *|
 A16 |] %9
w: men.|
V:2
 D2 F2 E2 G2 G2 F2 G4 | F2 E2 F2 G2 A2 G2 F4 E2 |1 E2 D2 F2 G2 F6 z2 :|2 E2 D2 G2 =F2 E6 z2 || %4
w: O Guds Lam u- skyl- * dig,|du som bæ- rer ver- dens synd, for-|barm dig o- ver os!|barm dig o- ver os!|
 ^D2 D2 E2 G2 A4 G4 | F2 E2 F2 G2 A2 F2 D4 G2 | F2 E2 E2 ^D6 z2 | E2 D4 G2 F4 E4 | F2 E4 ^D2 E8 |] %9
w: O Guds Lam u- skyl- dig,|du, som bæ- rer ver- dens synd, for-|len os din fred!|A- * * * *|* * * men.|
V:3
 G,2 D,2 G,2 E,2 A,4 G,4 | B,2 C2 D2 E2 A,2 A,2 B,4 G,2 |1 C2 B,2 D2 D2 D,6 z2 :|2 %3
w: O Guds Lam u- skyl- dig,|du, som bæ- rer ver- dens synd; for-|barm dig o- ver os!|
 C2 B,2 D2 D2 ^C6 z2 || C2 F,2 G,2 E,2 ^D,4 E,4 | C2 C2 B,2 E,2 F,2 A,2 G,4 E,2 | C2 C2 C2 B,6 z2 | %7
w: barm dig o- ver os!|O Guds Lam u- skyl- dig,|du, som bæ- rer ver- dens synd, for-|len os din fred!|
 E,2 F,2 G,2 E,2 D,3 ^D, E,2 =D,2 | C,2 C2 B,4 A,8 |] %9
w: A- * * * * * * *|* * * men.|

